report_00007_2020-12-11T15:55:29.892Z/cumulative-layout-shift/comparison/line/7_vs_8.svg

<svg width="640" height="500" xmlns="http://www.w3.org/2000/svg" xmlns:xlink="http://www.w3.org/1999/xlink"><path fill="#fff" d="M0 0h640v500H0z"/><defs><path id="d" stroke-width=".222" stroke="currentColor" d="M-1-1h2v2h-2z"/><path id="b" stroke-width=".222" stroke="currentColor" d="M0-1.33l-1.33 2h2.66z"/><path id="f" stroke-width=".222" stroke="currentColor" d="M0 1.33L1.265.411.782-1.067l-1.564-.009-.483 1.487z"/><use xlink:href="#b" id="c" stroke="currentColor" transform="rotate(180)"/><use xlink:href="#d" id="e" stroke="currentColor" transform="rotate(45)"/><circle id="a" stroke-width=".222" stroke="currentColor" cx="0" cy="0" r="1"/></defs><g fill="none" color="#000" stroke="currentColor"><path stroke="#000" d="M53.9 372.2h9m552.1 0h-9"/><text transform="translate(45.6 376.1)" stroke="none" fill="#000" font-family="Arial" font-size="12" text-anchor="end"><tspan>0.2</tspan></text></g><g fill="none" color="#000" stroke="currentColor"><path stroke="#000" d="M53.9 299h9m552.1 0h-9"/><text transform="translate(45.6 302.9)" stroke="none" fill="#000" font-family="Arial" font-size="12" text-anchor="end"><tspan>0.4</tspan></text></g><g fill="none" color="#000" stroke="currentColor"><path stroke="#000" d="M53.9 225.9h9m552.1 0h-9"/><text transform="translate(45.6 229.8)" stroke="none" fill="#000" font-family="Arial" font-size="12" text-anchor="end"><tspan>0.6</tspan></text></g><g fill="none" color="#000" stroke="currentColor"><path stroke="#000" d="M53.9 152.7h9m552.1 0h-9"/><text transform="translate(45.6 156.6)" stroke="none" fill="#000" font-family="Arial" font-size="12" text-anchor="end"><tspan>0.8</tspan></text></g><g fill="none" color="#000" stroke="currentColor"><path stroke="#000" d="M53.9 79.5h9m552.1 0h-9"/><text transform="translate(45.6 83.4)" stroke="none" fill="#000" font-family="Arial" font-size="12" text-anchor="end"><tspan>1</tspan></text></g><g fill="none" color="#000" stroke="currentColor"><path stroke="#000" d="M53.9 428v-9m0-400.9v9"/><text transform="translate(53.9 449.9)" stroke="none" fill="#000" font-family="Arial" font-size="12" text-anchor="middle"><tspan>0</tspan></text></g><g fill="none" color="#000" stroke="currentColor"><path stroke="#000" d="M110.6 428v-9m0-400.9v9"/><text transform="translate(110.6 449.9)" stroke="none" fill="#000" font-family="Arial" font-size="12" text-anchor="middle"><tspan>10</tspan></text></g><g fill="none" color="#000" stroke="currentColor"><path stroke="#000" d="M167.3 428v-9m0-400.9v9"/><text transform="translate(167.3 449.9)" stroke="none" fill="#000" font-family="Arial" font-size="12" text-anchor="middle"><tspan>20</tspan></text></g><g fill="none" color="#000" stroke="currentColor"><path stroke="#000" d="M223.9 428v-9m0-400.9v9"/><text transform="translate(223.9 449.9)" stroke="none" fill="#000" font-family="Arial" font-size="12" text-anchor="middle"><tspan>30</tspan></text></g><g fill="none" color="#000" stroke="currentColor"><path stroke="#000" d="M280.6 428v-9m0-400.9v9"/><text transform="translate(280.6 449.9)" stroke="none" fill="#000" font-family="Arial" font-size="12" text-anchor="middle"><tspan>40</tspan></text></g><g fill="none" color="#000" stroke="currentColor"><path stroke="#000" d="M337.3 428v-9m0-400.9v9"/><text transform="translate(337.3 449.9)" stroke="none" fill="#000" font-family="Arial" font-size="12" text-anchor="middle"><tspan>50</tspan></text></g><g fill="none" color="#000" stroke="currentColor"><path stroke="#000" d="M394 428v-9m0-400.9v9"/><text transform="translate(394 449.9)" stroke="none" fill="#000" font-family="Arial" font-size="12" text-anchor="middle"><tspan>60</tspan></text></g><g fill="none" color="#000" stroke="currentColor"><path stroke="#000" d="M450.6 428v-9m0-400.9v9"/><text transform="translate(450.6 449.9)" stroke="none" fill="#000" font-family="Arial" font-size="12" text-anchor="middle"><tspan>70</tspan></text></g><g fill="none" color="#000" stroke="currentColor"><path stroke="#000" d="M507.3 428v-9m0-400.9v9"/><text transform="translate(507.3 449.9)" stroke="none" fill="#000" font-family="Arial" font-size="12" text-anchor="middle"><tspan>80</tspan></text></g><g fill="none" color="#000" stroke="currentColor"><path stroke="#000" d="M564 428v-9m0-400.9v9"/><text transform="translate(564 449.9)" stroke="none" fill="#000" font-family="Arial" font-size="12" text-anchor="middle"><tspan>90</tspan></text></g><path stroke="#000" d="M53.9 18.1V428H615V18.1H53.9z" fill="none" color="#000"/><text transform="translate(275.6 467.9)" stroke="none" fill="#000" font-family="Arial" font-size="12" text-anchor="end" color="#000"><tspan>pages+cached+noexternal+nosvg</tspan></text><path stroke="#9400D3" d="M283.9 464h42.2M53.9 420.1l5.7-49.8 5.6-7.9h5.7l5.7 7.9h5.6l5.7 3.1 5.7-11h5.6l5.7 57.7 5.7-49.8 5.6-7.9 5.7 7.9 5.7 49.8 5.6-57.7 5.7 11 5.7-11 5.7 57.7h5.6l5.7-81.8 5.7 24.1L172.9 26l5.7 344.3 5.7 49.8L189.9 26l5.7 344.3 5.7-7.9 5.6 7.9 5.7 49.8 5.7-49.8 5.6 3.1L229.6 26l5.7 344.3 5.6 49.8h5.7l5.7-57.7h11.3L269.3 26l5.6 336.4h11.4l5.6 57.7 5.7-57.7 5.7 11 5.6 46.7h11.4l5.6-46.7h5.7l5.7-35.1 5.7 35.1 5.6-3.1 5.7 3.1 5.7 46.7 5.6-49.8h5.7l5.7 3.1 5.6-11h17L405.3 26l5.7 336.4h5.6l5.7 7.9 5.7 3.1 5.6-14.1 5.7 3.1 5.7 57.7 5.6-46.7 5.7-11h11.3l5.7 7.9h11.3l5.7 3.1L496 26l5.6 336.4 5.7 11 5.7 46.7h11.3l5.7-57.7h5.7l5.6 11L547 26l5.7 344.3 5.6 49.8 5.7-81.8 5.7 35.1 5.6 46.7 5.7-57.7 5.7 57.7 5.6-49.8 5.7 49.8 5.7-57.7h5.6l5.7 11" fill="none" color="#000"/><text transform="translate(275.6 485.9)" stroke="none" fill="#000" font-family="Arial" font-size="12" text-anchor="end" color="#000"><tspan>pages+cached+noexternal+noimg</tspan></text><path stroke="#009E73" d="M283.9 482h42.2M53.9 306.4l5.7 104.7 5.6-42.3 5.7 42.3 5.7-104.7 5.6 69.3 5.7-11.1 5.7 46.5 5.6-35.4 5.7-69.3 5.7 69.3 5.6 35.4 5.7-35.4 5.7-46.5 5.6 81.9 5.7-35.4h11.4l5.6-69.3 5.7 22.8 5.7 46.5h5.6l5.7-6.9 5.7 6.9 5.6 35.4 5.7-35.4h5.7l5.6-11.1 5.7 11.1h5.7l5.6-69.3 5.7 62.4 5.7 42.3 5.6-35.4 5.7-11.1 5.7 46.5 5.6-42.3 5.7-62.4 5.7 58.2 5.6 11.1 5.7-6.9h5.7l5.6 6.9 5.7-69.3 5.7 22.8 5.6 50.6 5.7-4.1 5.7-6.9 5.6 6.9h11.4l5.7 35.4 5.6-81.9 5.7 35.4 5.7 11.1 5.6-6.9h5.7l5.7 6.9 5.6 35.4 5.7-35.4 5.7-69.3 5.6 62.4H411l5.6 6.9h5.7l5.7-6.9 5.6 42.3 5.7-378.9 5.7 297 5.6-22.8 5.7 69.3 5.7-6.9 5.6 11 5.7-4.1 5.7 35.4 5.6-104.7 5.7 69.3 5.7-69.3 5.6 104.7 5.7-35.4 5.7-11.1 5.6 11.1h5.7l5.7-6.9h22.7l5.6 42.3 5.7-104.7 5.7 69.3 5.6 4.1 5.7-73.4 5.7 69.3 5.6-11.1 5.7 46.5 5.7-104.7 5.6 69.3 5.7-6.9" fill="none" color="#000"/><text transform="translate(575.1 467.9)" stroke="none" fill="#000" font-family="Arial" font-size="12" text-anchor="end" color="#000"><tspan>score p10=0.1</tspan></text><path stroke="#56B4E9" d="M583.4 464h42.2M53.9 408.8H615" fill="none" color="#000"/><g><text transform="translate(575.1 485.9)" stroke="none" fill="#000" font-family="Arial" font-size="12" text-anchor="end" color="#000"><tspan>score median=0.25</tspan></text><path stroke="#E69F00" d="M583.4 482h42.2M53.9 353.9H615" fill="none" color="#000"/></g><g fill="none" color="#000" stroke="currentColor"><path stroke="#000" d="M53.9 18.1V428H615V18.1H53.9z"/></g></svg>

<?xml version="1.0" encoding="utf-8"  standalone="no"?>
<svg 
 width="640" height="500"
 viewBox="0 0 640 500"
 xmlns="http://www.w3.org/2000/svg"
 xmlns:xlink="http://www.w3.org/1999/xlink"
>

<title>Gnuplot</title>
<desc>Produced by GNUPLOT 5.4 patchlevel 0 </desc>

<g id="gnuplot_canvas">

<rect x="0" y="0" width="640" height="500" fill="#ffffff"/>
<defs>

	<circle id='gpDot' r='0.5' stroke-width='0.5' stroke='currentColor'/>
	<path id='gpPt0' stroke-width='0.222' stroke='currentColor' d='M-1,0 h2 M0,-1 v2'/>
	<path id='gpPt1' stroke-width='0.222' stroke='currentColor' d='M-1,-1 L1,1 M1,-1 L-1,1'/>
	<path id='gpPt2' stroke-width='0.222' stroke='currentColor' d='M-1,0 L1,0 M0,-1 L0,1 M-1,-1 L1,1 M-1,1 L1,-1'/>
	<rect id='gpPt3' stroke-width='0.222' stroke='currentColor' x='-1' y='-1' width='2' height='2'/>
	<rect id='gpPt4' stroke-width='0.222' stroke='currentColor' fill='currentColor' x='-1' y='-1' width='2' height='2'/>
	<circle id='gpPt5' stroke-width='0.222' stroke='currentColor' cx='0' cy='0' r='1'/>
	<use xlink:href='#gpPt5' id='gpPt6' fill='currentColor' stroke='none'/>
	<path id='gpPt7' stroke-width='0.222' stroke='currentColor' d='M0,-1.33 L-1.33,0.67 L1.33,0.67 z'/>
	<use xlink:href='#gpPt7' id='gpPt8' fill='currentColor' stroke='none'/>
	<use xlink:href='#gpPt7' id='gpPt9' stroke='currentColor' transform='rotate(180)'/>
	<use xlink:href='#gpPt9' id='gpPt10' fill='currentColor' stroke='none'/>
	<use xlink:href='#gpPt3' id='gpPt11' stroke='currentColor' transform='rotate(45)'/>
	<use xlink:href='#gpPt11' id='gpPt12' fill='currentColor' stroke='none'/>
	<path id='gpPt13' stroke-width='0.222' stroke='currentColor' d='M0,1.330 L1.265,0.411 L0.782,-1.067 L-0.782,-1.076 L-1.265,0.411 z'/>
	<use xlink:href='#gpPt13' id='gpPt14' fill='currentColor' stroke='none'/>
	<filter id='textbox' filterUnits='objectBoundingBox' x='0' y='0' height='1' width='1'>
	  <feFlood flood-color='#FFFFFF' flood-opacity='1' result='bgnd'/>
	  <feComposite in='SourceGraphic' in2='bgnd' operator='atop'/>
	</filter>
	<filter id='greybox' filterUnits='objectBoundingBox' x='0' y='0' height='1' width='1'>
	  <feFlood flood-color='lightgrey' flood-opacity='1' result='grey'/>
	  <feComposite in='SourceGraphic' in2='grey' operator='atop'/>
	</filter>
</defs>
<g fill="none" color="#FFFFFF" stroke="black" stroke-width="1.00" stroke-linecap="butt" stroke-linejoin="miter">
</g>
<g fill="none" color="black" stroke="currentColor" stroke-width="1.00" stroke-linecap="butt" stroke-linejoin="miter">
	<path stroke='black'  d='M53.9,372.2 L62.9,372.2 M615.0,372.2 L606.0,372.2  '/>	<g transform="translate(45.6,376.1)" stroke="none" fill="black" font-family="Arial" font-size="12.00"  text-anchor="end">
		<text><tspan font-family="Arial" > 0.2</tspan></text>
	</g>
</g>
<g fill="none" color="black" stroke="currentColor" stroke-width="1.00" stroke-linecap="butt" stroke-linejoin="miter">
	<path stroke='black'  d='M53.9,299.0 L62.9,299.0 M615.0,299.0 L606.0,299.0  '/>	<g transform="translate(45.6,302.9)" stroke="none" fill="black" font-family="Arial" font-size="12.00"  text-anchor="end">
		<text><tspan font-family="Arial" > 0.4</tspan></text>
	</g>
</g>
<g fill="none" color="black" stroke="currentColor" stroke-width="1.00" stroke-linecap="butt" stroke-linejoin="miter">
	<path stroke='black'  d='M53.9,225.9 L62.9,225.9 M615.0,225.9 L606.0,225.9  '/>	<g transform="translate(45.6,229.8)" stroke="none" fill="black" font-family="Arial" font-size="12.00"  text-anchor="end">
		<text><tspan font-family="Arial" > 0.6</tspan></text>
	</g>
</g>
<g fill="none" color="black" stroke="currentColor" stroke-width="1.00" stroke-linecap="butt" stroke-linejoin="miter">
	<path stroke='black'  d='M53.9,152.7 L62.9,152.7 M615.0,152.7 L606.0,152.7  '/>	<g transform="translate(45.6,156.6)" stroke="none" fill="black" font-family="Arial" font-size="12.00"  text-anchor="end">
		<text><tspan font-family="Arial" > 0.8</tspan></text>
	</g>
</g>
<g fill="none" color="black" stroke="currentColor" stroke-width="1.00" stroke-linecap="butt" stroke-linejoin="miter">
	<path stroke='black'  d='M53.9,79.5 L62.9,79.5 M615.0,79.5 L606.0,79.5  '/>	<g transform="translate(45.6,83.4)" stroke="none" fill="black" font-family="Arial" font-size="12.00"  text-anchor="end">
		<text><tspan font-family="Arial" > 1</tspan></text>
	</g>
</g>
<g fill="none" color="black" stroke="currentColor" stroke-width="1.00" stroke-linecap="butt" stroke-linejoin="miter">
	<path stroke='black'  d='M53.9,428.0 L53.9,419.0 M53.9,18.1 L53.9,27.1  '/>	<g transform="translate(53.9,449.9)" stroke="none" fill="black" font-family="Arial" font-size="12.00"  text-anchor="middle">
		<text><tspan font-family="Arial" > 0</tspan></text>
	</g>
</g>
<g fill="none" color="black" stroke="currentColor" stroke-width="1.00" stroke-linecap="butt" stroke-linejoin="miter">
	<path stroke='black'  d='M110.6,428.0 L110.6,419.0 M110.6,18.1 L110.6,27.1  '/>	<g transform="translate(110.6,449.9)" stroke="none" fill="black" font-family="Arial" font-size="12.00"  text-anchor="middle">
		<text><tspan font-family="Arial" > 10</tspan></text>
	</g>
</g>
<g fill="none" color="black" stroke="currentColor" stroke-width="1.00" stroke-linecap="butt" stroke-linejoin="miter">
	<path stroke='black'  d='M167.3,428.0 L167.3,419.0 M167.3,18.1 L167.3,27.1  '/>	<g transform="translate(167.3,449.9)" stroke="none" fill="black" font-family="Arial" font-size="12.00"  text-anchor="middle">
		<text><tspan font-family="Arial" > 20</tspan></text>
	</g>
</g>
<g fill="none" color="black" stroke="currentColor" stroke-width="1.00" stroke-linecap="butt" stroke-linejoin="miter">
	<path stroke='black'  d='M223.9,428.0 L223.9,419.0 M223.9,18.1 L223.9,27.1  '/>	<g transform="translate(223.9,449.9)" stroke="none" fill="black" font-family="Arial" font-size="12.00"  text-anchor="middle">
		<text><tspan font-family="Arial" > 30</tspan></text>
	</g>
</g>
<g fill="none" color="black" stroke="currentColor" stroke-width="1.00" stroke-linecap="butt" stroke-linejoin="miter">
	<path stroke='black'  d='M280.6,428.0 L280.6,419.0 M280.6,18.1 L280.6,27.1  '/>	<g transform="translate(280.6,449.9)" stroke="none" fill="black" font-family="Arial" font-size="12.00"  text-anchor="middle">
		<text><tspan font-family="Arial" > 40</tspan></text>
	</g>
</g>
<g fill="none" color="black" stroke="currentColor" stroke-width="1.00" stroke-linecap="butt" stroke-linejoin="miter">
	<path stroke='black'  d='M337.3,428.0 L337.3,419.0 M337.3,18.1 L337.3,27.1  '/>	<g transform="translate(337.3,449.9)" stroke="none" fill="black" font-family="Arial" font-size="12.00"  text-anchor="middle">
		<text><tspan font-family="Arial" > 50</tspan></text>
	</g>
</g>
<g fill="none" color="black" stroke="currentColor" stroke-width="1.00" stroke-linecap="butt" stroke-linejoin="miter">
	<path stroke='black'  d='M394.0,428.0 L394.0,419.0 M394.0,18.1 L394.0,27.1  '/>	<g transform="translate(394.0,449.9)" stroke="none" fill="black" font-family="Arial" font-size="12.00"  text-anchor="middle">
		<text><tspan font-family="Arial" > 60</tspan></text>
	</g>
</g>
<g fill="none" color="black" stroke="currentColor" stroke-width="1.00" stroke-linecap="butt" stroke-linejoin="miter">
	<path stroke='black'  d='M450.6,428.0 L450.6,419.0 M450.6,18.1 L450.6,27.1  '/>	<g transform="translate(450.6,449.9)" stroke="none" fill="black" font-family="Arial" font-size="12.00"  text-anchor="middle">
		<text><tspan font-family="Arial" > 70</tspan></text>
	</g>
</g>
<g fill="none" color="black" stroke="currentColor" stroke-width="1.00" stroke-linecap="butt" stroke-linejoin="miter">
	<path stroke='black'  d='M507.3,428.0 L507.3,419.0 M507.3,18.1 L507.3,27.1  '/>	<g transform="translate(507.3,449.9)" stroke="none" fill="black" font-family="Arial" font-size="12.00"  text-anchor="middle">
		<text><tspan font-family="Arial" > 80</tspan></text>
	</g>
</g>
<g fill="none" color="black" stroke="currentColor" stroke-width="1.00" stroke-linecap="butt" stroke-linejoin="miter">
	<path stroke='black'  d='M564.0,428.0 L564.0,419.0 M564.0,18.1 L564.0,27.1  '/>	<g transform="translate(564.0,449.9)" stroke="none" fill="black" font-family="Arial" font-size="12.00"  text-anchor="middle">
		<text><tspan font-family="Arial" > 90</tspan></text>
	</g>
</g>
<g fill="none" color="black" stroke="currentColor" stroke-width="1.00" stroke-linecap="butt" stroke-linejoin="miter">
</g>
<g fill="none" color="black" stroke="currentColor" stroke-width="1.00" stroke-linecap="butt" stroke-linejoin="miter">
	<path stroke='black'  d='M53.9,18.1 L53.9,428.0 L615.0,428.0 L615.0,18.1 L53.9,18.1 Z  '/></g>
<g fill="none" color="black" stroke="currentColor" stroke-width="1.00" stroke-linecap="butt" stroke-linejoin="miter">
</g>
	<g id="gnuplot_plot_1" ><title>pages+cached+noexternal+nosvg</title>
<g fill="none" color="black" stroke="currentColor" stroke-width="1.00" stroke-linecap="butt" stroke-linejoin="miter">
	<g transform="translate(275.6,467.9)" stroke="none" fill="black" font-family="Arial" font-size="12.00"  text-anchor="end">
		<text><tspan font-family="Arial" >pages+cached+noexternal+nosvg</tspan></text>
	</g>
</g>
<g fill="none" color="black" stroke="currentColor" stroke-width="1.00" stroke-linecap="butt" stroke-linejoin="miter">
	<path stroke='rgb(148,   0, 211)'  d='M283.9,464.0 L326.1,464.0 M53.9,420.1 L59.6,370.3 L65.2,362.4 L70.9,362.4 L76.6,370.3 L82.2,370.3
		L87.9,373.4 L93.6,362.4 L99.2,362.4 L104.9,420.1 L110.6,370.3 L116.2,362.4 L121.9,370.3 L127.6,420.1
		L133.2,362.4 L138.9,373.4 L144.6,362.4 L150.3,420.1 L155.9,420.1 L161.6,338.3 L167.3,362.4 L172.9,26.0
		L178.6,370.3 L184.3,420.1 L189.9,26.0 L195.6,370.3 L201.3,362.4 L206.9,370.3 L212.6,420.1 L218.3,370.3
		L223.9,373.4 L229.6,26.0 L235.3,370.3 L240.9,420.1 L246.6,420.1 L252.3,362.4 L257.9,362.4 L263.6,362.4
		L269.3,26.0 L274.9,362.4 L280.6,362.4 L286.3,362.4 L291.9,420.1 L297.6,362.4 L303.3,373.4 L308.9,420.1
		L314.6,420.1 L320.3,420.1 L325.9,373.4 L331.6,373.4 L337.3,338.3 L343.0,373.4 L348.6,370.3 L354.3,373.4
		L360.0,420.1 L365.6,370.3 L371.3,370.3 L377.0,373.4 L382.6,362.4 L388.3,362.4 L394.0,362.4 L399.6,362.4
		L405.3,26.0 L411.0,362.4 L416.6,362.4 L422.3,370.3 L428.0,373.4 L433.6,359.3 L439.3,362.4 L445.0,420.1
		L450.6,373.4 L456.3,362.4 L462.0,362.4 L467.6,362.4 L473.3,370.3 L479.0,370.3 L484.6,370.3 L490.3,373.4
		L496.0,26.0 L501.6,362.4 L507.3,373.4 L513.0,420.1 L518.6,420.1 L524.3,420.1 L530.0,362.4 L535.7,362.4
		L541.3,373.4 L547.0,26.0 L552.7,370.3 L558.3,420.1 L564.0,338.3 L569.7,373.4 L575.3,420.1 L581.0,362.4
		L586.7,420.1 L592.3,370.3 L598.0,420.1 L603.7,362.4 L609.3,362.4 L615.0,373.4  '/></g>
	</g>
	<g id="gnuplot_plot_2" ><title>pages+cached+noexternal+noimg</title>
<g fill="none" color="black" stroke="currentColor" stroke-width="1.00" stroke-linecap="butt" stroke-linejoin="miter">
	<g transform="translate(275.6,485.9)" stroke="none" fill="black" font-family="Arial" font-size="12.00"  text-anchor="end">
		<text><tspan font-family="Arial" >pages+cached+noexternal+noimg</tspan></text>
	</g>
</g>
<g fill="none" color="black" stroke="currentColor" stroke-width="1.00" stroke-linecap="butt" stroke-linejoin="miter">
	<path stroke='rgb(  0, 158, 115)'  d='M283.9,482.0 L326.1,482.0 M53.9,306.4 L59.6,411.1 L65.2,368.8 L70.9,411.1 L76.6,306.4 L82.2,375.7
		L87.9,364.6 L93.6,411.1 L99.2,375.7 L104.9,306.4 L110.6,375.7 L116.2,411.1 L121.9,375.7 L127.6,329.2
		L133.2,411.1 L138.9,375.7 L144.6,375.7 L150.3,375.7 L155.9,306.4 L161.6,329.2 L167.3,375.7 L172.9,375.7
		L178.6,368.8 L184.3,375.7 L189.9,411.1 L195.6,375.7 L201.3,375.7 L206.9,364.6 L212.6,375.7 L218.3,375.7
		L223.9,306.4 L229.6,368.8 L235.3,411.1 L240.9,375.7 L246.6,364.6 L252.3,411.1 L257.9,368.8 L263.6,306.4
		L269.3,364.6 L274.9,375.7 L280.6,368.8 L286.3,368.8 L291.9,375.7 L297.6,306.4 L303.3,329.2 L308.9,379.8
		L314.6,375.7 L320.3,368.8 L325.9,375.7 L331.6,375.7 L337.3,375.7 L343.0,411.1 L348.6,329.2 L354.3,364.6
		L360.0,375.7 L365.6,368.8 L371.3,368.8 L377.0,375.7 L382.6,411.1 L388.3,375.7 L394.0,306.4 L399.6,368.8
		L405.3,368.8 L411.0,368.8 L416.6,375.7 L422.3,375.7 L428.0,368.8 L433.6,411.1 L439.3,32.2 L445.0,329.2
		L450.6,306.4 L456.3,375.7 L462.0,368.8 L467.6,379.8 L473.3,375.7 L479.0,411.1 L484.6,306.4 L490.3,375.7
		L496.0,306.4 L501.6,411.1 L507.3,375.7 L513.0,364.6 L518.6,375.7 L524.3,375.7 L530.0,368.8 L535.7,368.8
		L541.3,368.8 L547.0,368.8 L552.7,368.8 L558.3,411.1 L564.0,306.4 L569.7,375.7 L575.3,379.8 L581.0,306.4
		L586.7,375.7 L592.3,364.6 L598.0,411.1 L603.7,306.4 L609.3,375.7 L615.0,368.8  '/></g>
	</g>
	<g id="gnuplot_plot_3" ><title>score p10=0.1</title>
<g fill="none" color="black" stroke="currentColor" stroke-width="1.00" stroke-linecap="butt" stroke-linejoin="miter">
	<g transform="translate(575.1,467.9)" stroke="none" fill="black" font-family="Arial" font-size="12.00"  text-anchor="end">
		<text><tspan font-family="Arial" >score p10=0.1</tspan></text>
	</g>
</g>
<g fill="none" color="black" stroke="currentColor" stroke-width="1.00" stroke-linecap="butt" stroke-linejoin="miter">
	<path stroke='rgb( 86, 180, 233)'  d='M583.4,464.0 L625.6,464.0 M53.9,408.8 L59.6,408.8 L65.2,408.8 L70.9,408.8 L76.6,408.8 L82.2,408.8
		L87.9,408.8 L93.6,408.8 L99.2,408.8 L104.9,408.8 L110.6,408.8 L116.2,408.8 L121.9,408.8 L127.6,408.8
		L133.2,408.8 L138.9,408.8 L144.6,408.8 L150.3,408.8 L155.9,408.8 L161.6,408.8 L167.3,408.8 L172.9,408.8
		L178.6,408.8 L184.3,408.8 L189.9,408.8 L195.6,408.8 L201.3,408.8 L206.9,408.8 L212.6,408.8 L218.3,408.8
		L223.9,408.8 L229.6,408.8 L235.3,408.8 L240.9,408.8 L246.6,408.8 L252.3,408.8 L257.9,408.8 L263.6,408.8
		L269.3,408.8 L274.9,408.8 L280.6,408.8 L286.3,408.8 L291.9,408.8 L297.6,408.8 L303.3,408.8 L308.9,408.8
		L314.6,408.8 L320.3,408.8 L325.9,408.8 L331.6,408.8 L337.3,408.8 L343.0,408.8 L348.6,408.8 L354.3,408.8
		L360.0,408.8 L365.6,408.8 L371.3,408.8 L377.0,408.8 L382.6,408.8 L388.3,408.8 L394.0,408.8 L399.6,408.8
		L405.3,408.8 L411.0,408.8 L416.6,408.8 L422.3,408.8 L428.0,408.8 L433.6,408.8 L439.3,408.8 L445.0,408.8
		L450.6,408.8 L456.3,408.8 L462.0,408.8 L467.6,408.8 L473.3,408.8 L479.0,408.8 L484.6,408.8 L490.3,408.8
		L496.0,408.8 L501.6,408.8 L507.3,408.8 L513.0,408.8 L518.6,408.8 L524.3,408.8 L530.0,408.8 L535.7,408.8
		L541.3,408.8 L547.0,408.8 L552.7,408.8 L558.3,408.8 L564.0,408.8 L569.7,408.8 L575.3,408.8 L581.0,408.8
		L586.7,408.8 L592.3,408.8 L598.0,408.8 L603.7,408.8 L609.3,408.8 L615.0,408.8  '/></g>
	</g>
	<g id="gnuplot_plot_4" ><title>score median=0.25</title>
<g fill="none" color="black" stroke="currentColor" stroke-width="1.00" stroke-linecap="butt" stroke-linejoin="miter">
	<g transform="translate(575.1,485.9)" stroke="none" fill="black" font-family="Arial" font-size="12.00"  text-anchor="end">
		<text><tspan font-family="Arial" >score median=0.25</tspan></text>
	</g>
</g>
<g fill="none" color="black" stroke="currentColor" stroke-width="1.00" stroke-linecap="butt" stroke-linejoin="miter">
	<path stroke='rgb(230, 159,   0)'  d='M583.4,482.0 L625.6,482.0 M53.9,353.9 L59.6,353.9 L65.2,353.9 L70.9,353.9 L76.6,353.9 L82.2,353.9
		L87.9,353.9 L93.6,353.9 L99.2,353.9 L104.9,353.9 L110.6,353.9 L116.2,353.9 L121.9,353.9 L127.6,353.9
		L133.2,353.9 L138.9,353.9 L144.6,353.9 L150.3,353.9 L155.9,353.9 L161.6,353.9 L167.3,353.9 L172.9,353.9
		L178.6,353.9 L184.3,353.9 L189.9,353.9 L195.6,353.9 L201.3,353.9 L206.9,353.9 L212.6,353.9 L218.3,353.9
		L223.9,353.9 L229.6,353.9 L235.3,353.9 L240.9,353.9 L246.6,353.9 L252.3,353.9 L257.9,353.9 L263.6,353.9
		L269.3,353.9 L274.9,353.9 L280.6,353.9 L286.3,353.9 L291.9,353.9 L297.6,353.9 L303.3,353.9 L308.9,353.9
		L314.6,353.9 L320.3,353.9 L325.9,353.9 L331.6,353.9 L337.3,353.9 L343.0,353.9 L348.6,353.9 L354.3,353.9
		L360.0,353.9 L365.6,353.9 L371.3,353.9 L377.0,353.9 L382.6,353.9 L388.3,353.9 L394.0,353.9 L399.6,353.9
		L405.3,353.9 L411.0,353.9 L416.6,353.9 L422.3,353.9 L428.0,353.9 L433.6,353.9 L439.3,353.9 L445.0,353.9
		L450.6,353.9 L456.3,353.9 L462.0,353.9 L467.6,353.9 L473.3,353.9 L479.0,353.9 L484.6,353.9 L490.3,353.9
		L496.0,353.9 L501.6,353.9 L507.3,353.9 L513.0,353.9 L518.6,353.9 L524.3,353.9 L530.0,353.9 L535.7,353.9
		L541.3,353.9 L547.0,353.9 L552.7,353.9 L558.3,353.9 L564.0,353.9 L569.7,353.9 L575.3,353.9 L581.0,353.9
		L586.7,353.9 L592.3,353.9 L598.0,353.9 L603.7,353.9 L609.3,353.9 L615.0,353.9  '/></g>
	</g>
<g fill="none" color="#FFFFFF" stroke="rgb(230, 159,   0)" stroke-width="2.00" stroke-linecap=
